src/shared/svg/sidebar/Home.svg

<svg width="20" height="20" viewBox="0 0 20 20" fill="none" xmlns="http://www.w3.org/2000/svg">
<g clip-path="url(#clip0_4870_104614)">
<path d="M18.135 5.11597L13.135 1.09544C11.319 -0.365147 8.68201 -0.365147 6.86501 1.09544L1.86501 5.11597C0.680006 6.06936 0 7.48902 0 9.00963V15.004C0 17.7591 2.243 20 5 20H8V15.003C8 13.9016 8.897 13.0072 10 13.0072C11.103 13.0072 12 13.9026 12 15.003V20H15C17.757 20 20 17.7591 20 15.004V9.00963C20 7.48902 19.32 6.06936 18.135 5.11597ZM18 15.004C18 16.6556 16.654 17.9992 15 17.9992H14V15.003C14 12.7991 12.206 11.0064 10 11.0064C7.794 11.0064 6 12.7991 6 15.003V17.9992H5C3.346 17.9992 2 16.6556 2 15.004V9.00963C2 8.09826 2.408 7.24691 3.118 6.67568L8.118 2.65503C9.209 1.77867 10.792 1.77867 11.882 2.65503L16.882 6.67568C17.593 7.24691 18.001 8.09826 18.001 9.00963V15.004H18Z" fill="#8A8DBA"/>
</g>
<defs>
<clipPath id="clip0_4870_104614">
<rect width="20" height="20" fill="white"/>
</clipPath>
</defs>
</svg>

<svg width="20" height="20" viewBox="0 0 20 20" fill="none" xmlns="http://www.w3.org/2000/svg"><g clip-path="url(#a)"><path d="m18.135 5.116-5-4.02a5.034 5.034 0 0 0-6.27 0l-5 4.02A4.975 4.975 0 0 0 0 9.01v5.994A5.003 5.003 0 0 0 5 20h3v-4.997a2 2 0 0 1 4 0V20h3c2.757 0 5-2.24 5-4.996V9.01c0-1.521-.68-2.94-1.865-3.894ZM18 15.004a3.001 3.001 0 0 1-3 2.995h-1v-2.996a4.002 4.002 0 0 0-4-3.997c-2.206 0-4 1.793-4 3.997v2.996H5a3 3 0 0 1-3-2.995V9.01c0-.912.408-1.763 1.118-2.334l5-4.021a3.023 3.023 0 0 1 3.764 0l5 4.02a2.981 2.981 0 0 1 1.119 2.335v5.994H18Z" fill="#8A8DBA"/></g><defs><clipPath id="a"><path fill="#fff" d="M0 0h20v20H0z"/></clipPath></defs></svg>
